X: 47
T:Footy Agyen The Wa'
K:G
M:6/8
f|g2 e f2 d|e2 d B2 f|g2e f2 d|B3 B2 f|g2 e f2 d|e2 f g2 e|dBG A2 B|E3 E3:|

